app/client/src/assets/icons/blueprintjs/16px/syringe.svg

<svg width="16" height="16" viewBox="0 0 16 16" fill="none" xmlns="http://www.w3.org/2000/svg">
<path fill-rule="evenodd" clip-rule="evenodd" d="M11.1464 0.146447C10.9512 0.341709 10.9512 0.658291 11.1464 0.853553L11.7929 1.5L10.5 2.79289L8.85355 1.14645C8.65829 0.951184 8.34171 0.951184 8.14645 1.14645C7.95118 1.34171 7.95118 1.65829 8.14645 1.85355L8.79289 2.5L7.64678 3.64611L2.14645 9.14645C1.95118 9.34171 1.95118 9.65829 2.14645 9.85355L2.79289 10.5L1.14645 12.1464C0.951184 12.3417 0.951184 12.6583 1.14645 12.8536L1.79289 13.5L0.146446 15.1464C-0.0488153 15.3417 -0.0488153 15.6583 0.146446 15.8536C0.341709 16.0488 0.65829 16.0488 0.853553 15.8536L2.5 14.2071L3.14645 14.8536C3.34171 15.0488 3.65829 15.0488 3.85355 14.8536L5.5 13.2071L6.14645 13.8536C6.34171 14.0488 6.65829 14.0488 6.85355 13.8536L12.3532 8.35387L13.5 7.20711L14.1464 7.85355C14.3417 8.04882 14.6583 8.04882 14.8536 7.85355C15.0488 7.65829 15.0488 7.34171 14.8536 7.14645L13.2071 5.5L14.5 4.20711L15.1464 4.85355C15.3417 5.04882 15.6583 5.04882 15.8536 4.85355C16.0488 4.65829 16.0488 4.34171 15.8536 4.14645L11.8536 0.146447C11.6583 -0.0488155 11.3417 -0.0488155 11.1464 0.146447ZM11.2929 8L10.5 8.79289L8.85355 7.14645C8.65829 6.95118 8.34171 6.95118 8.14645 7.14645C7.95118 7.34171 7.95118 7.65829 8.14645 7.85355L9.79289 9.5L8.5 10.7929L6.85355 9.14645C6.65829 8.95118 6.34171 8.95118 6.14645 9.14645C5.95118 9.34171 5.95118 9.65829 6.14645 9.85355L7.79289 11.5L6.5 12.7929L3.20711 9.5L8 4.70711L11.2929 8ZM8.70711 4L12 7.29289L12.7929 6.5L9.5 3.20711L8.70711 4ZM2.20711 12.5L3.5 13.7929L4.79289 12.5L3.5 11.2071L2.20711 12.5ZM13.7929 3.5L12.5 2.20711L11.2071 3.5L12.5 4.79289L13.7929 3.5Z" fill="black"/>
</svg>

<svg xmlns="http://www.w3.org/2000/svg" width="16" height="16"><path fill-rule="evenodd" d="M11.146.146a.5.5 0 0 0 0 .708l.647.646L10.5 2.793 8.854 1.146a.5.5 0 1 0-.708.708l.647.646-1.146 1.146-5.5 5.5a.5.5 0 0 0 0 .708l.646.646-1.647 1.646a.5.5 0 0 0 0 .708l.647.646-1.647 1.646a.5.5 0 0 0 .708.708L2.5 14.207l.646.647a.5.5 0 0 0 .708 0L5.5 13.207l.646.647a.5.5 0 0 0 .708 0l5.5-5.5L13.5 7.207l.646.647a.5.5 0 0 0 .708-.708L13.207 5.5 14.5 4.207l.646.647a.5.5 0 0 0 .708-.708l-4-4a.5.5 0 0 0-.708 0ZM11.293 8l-.793.793-1.646-1.647a.5.5 0 1 0-.708.708L9.793 9.5 8.5 10.793 6.854 9.146a.5.5 0 1 0-.708.708L7.793 11.5 6.5 12.793 3.207 9.5 8 4.707 11.293 8ZM8.707 4 12 7.293l.793-.793L9.5 3.207 8.707 4Zm-6.5 8.5L3.5 13.793 4.793 12.5 3.5 11.207 2.207 12.5Zm11.586-9L12.5 2.207 11.207 3.5 12.5 4.793 13.793 3.5Z" clip-rule="evenodd"/></svg>
